!! 00000] TT[WS
!!!OTL: Maonuzi guandeng
!!!ARE: Asia, China,ÿShanxi Lishan
!! Ethnic Group: Han
!! WI, 177 (2)
!!!SCT: J0211
!!!YEM: Copyright 1995, estate of Helmut Schaffrath.
**kern
*ICvox
*Ivox
*M2/4
*k[b-]
*F:
{8cc
8cc
8a
16dd
16ff
=1
2cc
=2
8ff
16dd
16cc
8a
8cc
=3
2g}
=4
{8cc
8cc
8dd
8cc
=5
8a
8cc
4e-
=6
16g
16g
16g
16g
8g
8c
=7
8d
8f
8g
8g
=8
8g
16d
16f
4c}
==
!!!AGN: Xiaodiao. Fengsuge, Qingge
!!!ONB: ESAC (Essen Associative Code) Database: CHINA
!!!AMT: simple duple
!!!AIN: vox
!!!EED: Helmut Schaffrath
!!!EEV: 1.0
*-
